X:1
T:Title
%%score { ( 1 2 ) | ( 3 4 ) }
L:1/8
Q:1/4=90
M:6/8
K:C
V:1 treble nm="Grand Piano"
V:2 treble 
V:3 bass 
V:4 bass 
V:1
 .c3 z3 | .c3 z3 | z2 .c z3 | BA[DB] .[Ec]3 | .c3 z3 | .c3 z3 | z2 .c z3 | BA[DB] .[Ec]3 | %8
w: J.~Stevenson||||||||
 .[EG]2 .[EG] .[FA]2 .[FA] | .[EG]2 .[EG] .[CE]3 | .[EG]2 .[EG] .[FA]2 .[FA] | %11
w: |||
 .[EG]2 .[EG] .[CE]3 | [Ec]3 [Ge]2 [Gc] | A3 d2 c | .B2 .B .[DB][CA][DB] | [Ec]6 |] %16
w: |||||
V:2
 E-[CEG][EG] [FA][EG][EG] | E-[CEG][EG] [FA] [EG]2 | [Ec][Ge][CG]/-[CGB]/ Adc | x6 | %4
 E-[CEG][EG] [FA][EG][EG] | E-[CEG][EG] [FA] [EG]2 | [Ec][Ge][CG]/-[CGB]/ Adc | x6 | x6 | x6 | x6 | %11
 x6 | x6 | x6 | x6 | x6 |] %16
V:3
 .[C,G,]2 [C,C] [C,C]2 [C,C] | .[C,G,]2 [C,C] [C,C]3 | G,CE, [F,F]-[F,A,F][F,A,D] | .D3 z3 | %4
 .[C,G,]2 [C,C] [C,C]2 [C,C] | .[C,G,]2 [C,C] [C,C]3 | .G,3 .C3 | .D3 z3 | %8
 .[C,C]2 .[C,C] .[C,C]2 .[C,C] | .[C,C]2 .[C,C] .[C,G,]3 | .[C,C]2 .[C,C] .[C,C]2 .[C,C] | %11
 .[C,C]2 .[C,C] .[C,G,]3 | [C,G,]3 [C,C]2 [E,C] | C3 z3 | .[G,D]2 .[G,D] .[G,,G,]2 [G,,G,] | %15
 [C,G,]6 |] %16
V:4
 x6 | x6 | .C,3 .C3 | G,-[G,C][G,,G,] .[C,G,]3 | x6 | x6 | C,-[C,C]E, [F,F]-[F,A,F][F,A,D] | %7
 G,-[G,C][G,,G,] .[C,G,]3 | x6 | x6 | x6 | x6 | x6 | [F,F]3- [F,A,F]2 [F,A,D] | x6 | x6 |] %16

